assets/svg/facebook.svg

<svg width="24" height="24" viewBox="0 0 24 24" fill="none" xmlns="http://www.w3.org/2000/svg">
<path d="M6 10V14H9V21H13V14H16L17 10H13V8C13 7.73478 13.1054 7.48043 13.2929 7.29289C13.4804 7.10536 13.7348 7 14 7H17V3H14C12.6739 3 11.4021 3.52678 10.4645 4.46447C9.52678 5.40215 9 6.67392 9 8V10H6Z" stroke="url(#paint0_linear)" stroke-width="2" stroke-linecap="round" stroke-linejoin="round"/>
<defs>
<linearGradient id="paint0_linear" x1="11.5" y1="3" x2="11.5" y2="21" gradientUnits="userSpaceOnUse">
<stop stop-color="#17AAFD"/>
<stop offset="1" stop-color="#036CE4"/>
</linearGradient>
</defs>
</svg>

<svg xmlns="http://www.w3.org/2000/svg" width="24" height="24" fill="none" xmlns:v="https://vecta.io/nano"><path d="M6 10v4h3v7h4v-7h3l1-4h-4V8a1 1 0 0 1 1-1h3V3h-3a5 5 0 0 0-5 5v2H6z" stroke="url(#A)" stroke-width="2" stroke-linejoin="round"/><defs><linearGradient id="A" x1="11.5" y1="3" x2="11.5" y2="21" gradientUnits="userSpaceOnUse"><stop stop-color="#17aafd"/><stop offset="1" stop-color="#036ce4"/></linearGradient></defs></svg>
